X:17880
T:Tullochgorum
M:4/4
L:1/8
Q:1/4=96
K:DMix
G|F>DA>D G>CE>G|F>DA>D F>GA>d|F>DA>D       G>CE>G|F>DA>G F2E||
F|D>dA>B c>CE2 |D>dA>d F>dA>d|D>dA>B       c>CE>F|D>dA>B F2E||
F|D>dA>B c>CE>F|D>dA>B c>de>c|e/d/c/B/ c>A G>CE>F|D>dA>G F2E|]
